website/assets/images/user-login.svg

<svg height="26" viewBox="0 0 26 26" width="26" xmlns="http://www.w3.org/2000/svg"><g fill="none" fill-rule="evenodd"><path d="m17.1802834 10.0170481.0000095.0001257c2.206103-.21688733 4.148759 1.6457199 4.3390434 4.1602497.001376.0181829.0026564.036375.0038411.0545754.089824 1.3797981.1347369 2.5097092.1347369 3.3897335 0 .8783237-.0447395 1.9393368-.1342185 3.1830395l-.0000819-.0000077c-.1711857 2.3721234-1.9111194 4.1972949-3.999311 4.1952358h-8.7547575c-2.11854684-.0003452-3.87122483-1.8792976-4.00120778-4.289481-.07366736-1.3773422-.11042335-2.681549-.11042335-3.9126094 0-.7844875.01492594-1.5689488.0447778-2.3533838l-.00018856-.0000092c.09468293-2.5215578 1.96483697-4.47819766 4.17710596-4.3702775.04857688.0023697.09711192.0057464.14558103.0101284l-.00001269.0001823c1.13832249.1035699 2.34030659.1553548 3.60595229.1553548" stroke="#000" stroke-linecap="round" stroke-linejoin="round" stroke-width="1.75"/><g fill="#000"><path d="m13 0c2.4852814 0 4.5 2.01471863 4.5 4.5s-2.0147186 4.5-4.5 4.5-4.5-2.01471863-4.5-4.5 2.0147186-4.5 4.5-4.5zm0 2c-1.3807119 0-2.5 1.11928813-2.5 2.5s1.1192881 2.5 2.5 2.5 2.5-1.11928813 2.5-2.5-1.1192881-2.5-2.5-2.5z" fill-rule="nonzero"/><circle cx="15" cy="14" r="1"/><circle cx="15" cy="18" r="1"/></g></g></svg>

<?xml version="1.0" encoding="UTF-8"?>
<svg width="26px" height="26px" viewBox="0 0 26 26" version="1.1" xmlns="http://www.w3.org/2000/svg" xmlns:xlink="http://www.w3.org/1999/xlink">
    <title>app-icons/user@2x</title>
    <g id="app-icons/user" stroke="none" stroke-width="1" fill="none" fill-rule="evenodd">
        <path d="M17.1802834,10.0170481 L17.1802929,10.0171738 C19.3863959,9.80028647 21.3290519,11.6628937 21.5193363,14.1774235 C21.5207123,14.1956064 21.5219927,14.2137985 21.5231774,14.2319989 C21.6130014,15.611797 21.6579143,16.7417081 21.6579143,17.6217324 C21.6579143,18.5000561 21.6131748,19.5610692 21.5236958,20.8047719 L21.5236139,20.8047642 C21.3524282,23.1768876 19.6124945,25.0020591 17.5243029,25 L8.7695454,25 C6.65099856,24.9996548 4.89832057,23.1207024 4.76833762,20.710519 C4.69467026,19.3331768 4.65791427,18.02897 4.65791427,16.7979096 C4.65791427,16.0134221 4.67284021,15.2289608 4.70269207,14.4445258 L4.70250351,14.4445166 C4.79718644,11.9229588 6.66734048,9.96631894 8.87960947,10.0742391 C8.92818635,10.0766088 8.97672139,10.0799855 9.0251905,10.0843675 L9.02517781,10.0845498 C10.1635003,10.1881197 11.3654844,10.2399046 12.6311301,10.2399046" id="Path" stroke="#000000" stroke-width="1.75" stroke-linecap="round" stroke-linejoin="round"></path>
        <path d="M13,0 C15.4852814,0 17.5,2.01471863 17.5,4.5 C17.5,6.98528137 15.4852814,9 13,9 C10.5147186,9 8.5,6.98528137 8.5,4.5 C8.5,2.01471863 10.5147186,0 13,0 Z M13,2 C11.6192881,2 10.5,3.11928813 10.5,4.5 C10.5,5.88071187 11.6192881,7 13,7 C14.3807119,7 15.5,5.88071187 15.5,4.5 C15.5,3.11928813 14.3807119,2 13,2 Z" id="Oval" fill="#000000" fill-rule="nonzero"></path>
        <circle id="Oval" fill="#000000" cx="15" cy="14" r="1"></circle>
        <circle id="Oval-Copy" fill="#000000" cx="15" cy="18" r="1"></circle>
    </g>
</svg>
